source/img/icon-fb-mobile.svg

<svg enable-background="new 0 0 10 19" viewBox="0 0 10 19" xmlns="http://www.w3.org/2000/svg"><path d="m7.1 19h-5.1v-8.8h-2v-4.4h1.9c-.1-2 .2-3.4 1.1-4.4.8-.9 2-1.3 3.5-1.4h3.5v4.2h-2.8c-.1.2-.2.8-.2 1.6h3v4.4h-2.9zm-4-1h2.8v-8.9h2.9v-2.3h-2.9v-.5c0-1.4 0-2.6.7-3.1l.1-.1h2.1v-2.1h-2.3c-1.2.1-2 .4-2.6 1-.8.8-1 2.3-.8 4.2l.1.6h-2.1v2.3h2z"/></svg>

<svg viewBox="0 0 10 19" xmlns="http://www.w3.org/2000/svg"><path d="M7.1 19H2v-8.8H0V5.8h1.9c-.1-2 .2-3.4 1.1-4.4C3.8.5 5 .1 6.5 0H10v4.2H7.2c-.1.2-.2.8-.2 1.6h3v4.4H7.1zm-4-1h2.8V9.1h2.9V6.8H5.9v-.5c0-1.4 0-2.6.7-3.1l.1-.1h2.1V1H6.5c-1.2.1-2 .4-2.6 1-.8.8-1 2.3-.8 4.2l.1.6H1.1v2.3h2z"/></svg>
